svgs/light/dharmachakra.svg

<svg xmlns="http://www.w3.org/2000/svg" viewBox="0 0 512 512"><!-- Font Awesome Pro 6.0.0-alpha2 by @fontawesome - https://fontawesome.com License - https://fontawesome.com/license (Commercial License) --><path d="M496 240H463.189C459.713 194.68 441.732 153.422 413.775 120.836L437.016 97.594C443.266 91.344 443.266 81.219 437.016 74.969S420.641 68.719 414.391 74.969L391.148 98.211C358.564 70.262 317.316 52.285 272 48.812V16C272 7.156 264.844 0 256 0S240 7.156 240 16V48.812C194.684 52.285 153.436 70.262 120.852 98.211L97.609 74.969C91.359 68.719 81.234 68.719 74.984 74.969S68.734 91.344 74.984 97.594L98.225 120.836C70.268 153.422 52.287 194.68 48.811 240H16C7.156 240 0 247.156 0 256S7.156 272 16 272H48.811C52.287 317.32 70.268 358.578 98.225 391.164L74.984 414.406C68.734 420.656 68.734 430.781 74.984 437.031C78.109 440.156 82.203 441.719 86.297 441.719S94.484 440.156 97.609 437.031L120.852 413.789C153.436 441.738 194.684 459.715 240 463.188V496C240 504.844 247.156 512 256 512S272 504.844 272 496V463.188C317.316 459.715 358.564 441.738 391.148 413.789L414.391 437.031C417.516 440.156 421.609 441.719 425.703 441.719S433.891 440.156 437.016 437.031C443.266 430.781 443.266 420.656 437.016 414.406L413.775 391.164C441.732 358.578 459.713 317.32 463.189 272H496C504.844 272 512 264.844 512 256S504.844 240 496 240ZM431.189 240H350.383C347.924 225.469 342.305 212.086 334.082 200.543L391.158 143.457C413.41 170.137 427.877 203.477 431.189 240ZM256 320C220.703 320 192 291.281 192 256S220.703 192 256 192S320 220.719 320 256S291.297 320 256 320ZM368.535 120.832L311.457 177.918C299.916 169.695 286.529 164.078 272 161.617V80.812C308.523 84.125 341.857 98.582 368.535 120.832ZM240 80.812V161.617C225.471 164.078 212.084 169.695 200.543 177.918L143.465 120.832C170.143 98.582 203.477 84.125 240 80.812ZM120.842 143.457L177.918 200.543C169.695 212.086 164.076 225.469 161.617 240H80.811C84.123 203.477 98.59 170.137 120.842 143.457ZM80.811 272H161.617C164.076 286.531 169.695 299.914 177.918 311.457L120.842 368.543C98.59 341.863 84.123 308.523 80.811 272ZM143.465 391.168L200.543 334.082C212.084 342.305 225.471 347.922 240 350.383V431.188C203.477 427.875 170.143 413.418 143.465 391.168ZM272 431.188V350.383C286.529 347.922 299.916 342.305 311.457 334.082L368.535 391.168C341.857 413.418 308.523 427.875 272 431.188ZM391.158 368.543L334.082 311.457C342.305 299.914 347.924 286.531 350.383 272H431.189C427.877 308.523 413.41 341.863 391.158 368.543Z"/></svg>

<svg xmlns="http://www.w3.org/2000/svg" viewBox="0 0 512 512"><!--! Font Awesome Pro 6.3.0 by @fontawesome - https://fontawesome.com License - https://fontawesome.com/license (Commercial License) Copyright 2023 Fonticons, Inc. --><path d="M496 240h-32.81c-3.477-45.32-21.46-86.58-49.41-119.2l23.24-23.24c6.25-6.25 6.25-16.38 0-22.62s-16.38-6.25-22.62 0l-23.24 23.24C358.6 70.26 317.3 52.29 272 48.81V16C272 7.156 264.8 0 256 0S240 7.156 240 16v32.81C194.7 52.29 153.4 70.26 120.9 98.21L97.61 74.97c-6.25-6.25-16.38-6.25-22.62 0s-6.25 16.38 0 22.62L98.22 120.8C70.27 153.4 52.29 194.7 48.81 240H16C7.156 240 0 247.2 0 256s7.156 16 16 16h32.81c3.477 45.32 21.46 86.58 49.41 119.2l-23.24 23.24c-6.25 6.25-6.25 16.38 0 22.62c3.125 3.125 7.219 4.688 11.31 4.688s8.188-1.562 11.31-4.688l23.24-23.24C153.4 441.7 194.7 459.7 240 463.2V496c0 8.844 7.156 16 16 16s16-7.156 16-16v-32.81c45.32-3.473 86.56-21.45 119.1-49.4l23.24 23.24c3.125 3.125 7.219 4.688 11.31 4.688s8.188-1.562 11.31-4.688c6.25-6.25 6.25-16.38 0-22.62L413.8 391.2C441.7 358.6 459.7 317.3 463.2 272H496C504.8 272 512 264.8 512 256S504.8 240 496 240zM431.2 240h-80.81c-2.459-14.53-8.078-27.91-16.3-39.46l57.08-57.09C413.4 170.1 427.9 203.5 431.2 240zM256 320c-35.3 0-64-28.72-64-64s28.7-64 64-64s64 28.72 64 64S291.3 320 256 320zM368.5 120.8l-57.08 57.09C299.9 169.7 286.5 164.1 272 161.6V80.81C308.5 84.13 341.9 98.58 368.5 120.8zM240 80.81v80.8C225.5 164.1 212.1 169.7 200.5 177.9L143.5 120.8C170.1 98.58 203.5 84.13 240 80.81zM120.8 143.5l57.08 57.09C169.7 212.1 164.1 225.5 161.6 240H80.81C84.12 203.5 98.59 170.1 120.8 143.5zM80.81 272h80.81c2.459 14.53 8.078 27.91 16.3 39.46l-57.08 57.09C98.59 341.9 84.12 308.5 80.81 272zM143.5 391.2l57.08-57.09C212.1 342.3 225.5 347.9 240 350.4v80.8C203.5 427.9 170.1 413.4 143.5 391.2zM272 431.2v-80.8c14.53-2.461 27.92-8.078 39.46-16.3l57.08 57.09C341.9 413.4 308.5 427.9 272 431.2zM391.2 368.5l-57.08-57.09C342.3 299.9 347.9 286.5 350.4 272h80.81C427.9 308.5 413.4 341.9 391.2 368.5z"/></svg>
